X: 4
T: Statia Donnelly
R: jig
M: 6/8
L: 1/8
K: Dmaj
FGA =cAA|BAG =cAG|~F2A =cAG|Add d2D|FGA cAG|Ade fge|dcA GEA|DED D2A|FGA ~=c2A|BAG =cAG|~F2A =cAG|Add d2A|FGA cAG|~f3 g2e|dcA GEA|DED D2B|||:A2d dcd|fag efe|dcA G2B|A2B =cAG|Add dcd|fag ~e3|dcA GEA|1 DED D2B:|2 DED D2c|||:ded cAA|~f3 g2e|~d3 cAB|=c2B ~A3|ded cAA|~f3 g2e|dcA GEA|1 DED D2c:|2 DED DAG||


Tune 1471	Setting 1471

